src/icon/entity/calendar/icon_calendar_s_black.svg

<svg width="18px" height="18px" viewBox="0 0 18 18" version="1.1" xmlns="http://www.w3.org/2000/svg"><g stroke="none" stroke-width="1" fill="none" fill-rule="evenodd"><rect x="0" y="0" width="18" height="18"/><path d="M6.5,2 C6.22385763,2 6,2.22385763 6,2.5 L6,3 L3.5,3 C2.673,3 2,3.673 2,4.5 L2,14.5 C2,15.327 2.673,16 3.5,16 L14.5,16 C15.327,16 16,15.327 16,14.5 L16,4.5 C16,3.673 15.327,3 14.5,3 L12,3 L12,2.5 C12,2.22385763 11.7761424,2 11.5,2 C11.2238576,2 11,2.22385763 11,2.5 L11,3 L7,3 L7,2.5 C7,2.22385763 6.77614237,2 6.5,2 Z M11,4 L11,4.5 C11,4.77614237 11.2238576,5 11.5,5 C11.7761424,5 12,4.77614237 12,4.5 L12,4 L14.5,4 C14.7761424,4 15,4.22385763 15,4.5 L15,14.5 C15,14.7761424 14.7761424,15 14.5,15 L3.5,15 C3.22385763,15 3,14.7761424 3,14.5 L3,4.5 C3,4.22385763 3.22385763,4 3.5,4 L6,4 L6,4.5 C6,4.77614237 6.22385763,5 6.5,5 C6.77614237,5 7,4.77614237 7,4.5 L7,4 L11,4 Z" fill-opacity="0.9" fill="#0B1F35" fill-rule="nonzero"/><path d="M4,8 L7,8 L7,9 L4,9 L4,8 Z M8,8 L11,8 L11,9 L8,9 L8,8 Z M4,11 L7,11 L7,12 L4,12 L4,11 Z M8,11 L11,11 L11,12 L8,12 L8,11 Z M12,8 L14,8 L14,9 L12,9 L12,8 Z" fill-opacity="0.9" fill="#0B1F35" fill-rule="nonzero"/></g></svg>

<svg width="18" height="18" viewBox="0 0 18 18" xmlns="http://www.w3.org/2000/svg"><g fill="none" fill-rule="evenodd"><path d="M0 0h18v18H0z"/><path d="M6.5 2a.5.5 0 0 0-.5.5V3H3.5C2.673 3 2 3.673 2 4.5v10c0 .827.673 1.5 1.5 1.5h11c.827 0 1.5-.673 1.5-1.5v-10c0-.827-.673-1.5-1.5-1.5H12v-.5a.5.5 0 1 0-1 0V3H7v-.5a.5.5 0 0 0-.5-.5zM11 4v.5a.5.5 0 1 0 1 0V4h2.5a.5.5 0 0 1 .5.5v10a.5.5 0 0 1-.5.5h-11a.5.5 0 0 1-.5-.5v-10a.5.5 0 0 1 .5-.5H6v.5a.5.5 0 0 0 1 0V4h4z" fill-opacity=".9" fill="#0B1F35" fill-rule="nonzero"/><path d="M4 8h3v1H4V8zm4 0h3v1H8V8zm-4 3h3v1H4v-1zm4 0h3v1H8v-1zm4-3h2v1h-2V8z" fill-opacity=".9" fill="#0B1F35" fill-rule="nonzero"/></g></svg>
